X: 296
T: 297. Jesu, der du meine Seele
N: Derived from chor297.krn
C: Johann Sebastian Bach
%%abc-version 2.0
%%abcx-abcm2ps-target-version 5.9.1 (29 Sep 2008)
%%abc-creator hum2abc beta
%%abcx-conversion-date 2019/03/11 17:28:19
%%abc-edited-by Craig Stuart Sapp
%%humdrum-veritas 2967774330
%%humdrum-veritas-data 4245832318
%%
%%barnumbers 0
L: 1/4
M: C
%%staves [1 2 3 4]
V: 1 clef=treble
V: 2 clef=treble
V: 3 clef=treble-8
V: 4 clef=bass
K: Bb
[V:1] ddAB | 
[V:2] GGAG | 
[V:3] B/c/ddd | 
[V:4] G,/A,/B,^F,G, | 
[V:1] cB/A/A!fermata!G | 
[V:2] GG^F!fermata!D | 
[V:3] c/d/ed/c/!fermata!B | 
[V:4] E,C,D,!fermata!G,, | 
[V:1] BBAG | 
[V:2] DEE/D/ D/C/ | 
[V:3] GGG/^F/G | 
[V:4] G,/F,/ E,/D,/ C,/D,/E, | 
[V:1] ^FG!fermata!A2 | 
[V:2] CD!fermata!D2 | 
[V:3] AB!fermata!^F2 | 
[V:4] A,,G,,!fermata!D,2 | 
[V:1] ddAB | 
[V:2] DG^FG | 
[V:3] B/c/ddd | 
[V:4] G,,/A,,/ B,,/C,/D,G, | 
[V:1] cB/A/A!fermata!G | 
[V:2] GG^F!fermata!D | 
[V:3] c/d/ed/c/!fermata!B | 
[V:4] E,C,D,!fermata!G,, | 
[V:1] BBAG | 
[V:2] DEE/D/ D/C/ | 
[V:3] GGG/^F/G | 
[V:4] G,/F,/ E,/D,/ C,/D,/E, | 
[V:1] ^FG!fermata!A2 | 
[V:2] CD!fermata!D2 | 
[V:3] AB!fermata!^F2 | 
[V:4] A,,G,,!fermata!D,2 | 
[V:1] ABcA | 
[V:2] ^FGG=F | 
[V:3] ddcc | 
[V:4] D,G,/=F,/=E,F,/E,/ | 
[V:1] BA/G/G!fermata!F | 
[V:2] FF=E!fermata!C | 
[V:3] B/c/dc/B/!fermata!A | 
[V:4] D,B,,C,!fermata!F, | 
[V:1] Bcdd | 
[V:2] FG/A/BB | 
[V:3] B_eff | 
[V:4] D,C,B,,B,/A,/ | 
[V:1] ed/c/c!fermata!B | 
[V:2] BBA!fermata!F | 
[V:3] e/f/gf/e/!fermata!d | 
[V:4] G,E,F,!fermata!B,, | 
[V:1] ddcd | 
[V:2] FFF/E/D | 
[V:3] BBAA | 
[V:4] B,,/C,/ D,/E,/F,^F, | 
[V:1] Bc!fermata!d2 | 
[V:2] DG!fermata!^F2 | 
[V:3] G/B/ A/G/!fermata!A2 | 
[V:4] G,/=F,/E,!fermata!D,2 | 
[V:1] ddcB | 
[V:2] GGAG | 
[V:3] B/c/ded | 
[V:4] G,/A,/B,^F,G, | 
[V:1] AA!fermata!G2 |]  
[V:2] G^F!fermata!D2 |]  
[V:3] ed/c/!fermata!=B2 |]  
[V:4] C,D,!fermata!G,,2 |]  



